**kern	**kern
*part1	*part1
*staff2	*staff1
*I"Piano	*
*clefF4	*clefG2
*k[b-e-a-d-]	*k[b-e-a-d-]
=1	=1
4CC 4C	4en 4een
4A- 4c	4a- 4cc
4CC 4C	4e 4ee
=	=
4DD- 4D-	4r
4r	4f 4a- 4cc 4ff
4DD- 4D-	4r
=	=
4GG 4G	4r
4r	4f 4b- 4dd- 4ff
4GG 4G	4r
=	=
4AA- 4A-	4r
4r	4f 4cc 4ff
4BB- 4B-	4f 4b- 4dd-
=	=
4GG 4G	4r
4r	4d- 4f 4g
4CC 4C	4c 4en 4a-
=	=
4FF 4F	4r
4r	4c 4a- 4cc
4FF 4F	4r
=	=
4EEn 4En	4r
4r	4c 4a- 4cc
4EE 4E	4r
=	=
*-	*-
!!!system-decoration: {(s1,s2)}
